X: 19483
T: Jackson's Morning Brush
R: jig
M: 6/8
K: Dmajor
|:D2 F E2 F|DFA AFA|BAB def|gfg ecA|D2 F E2 F|
DFA AFA|BAB d2 e2|fdd d2:|:fed faf|gbg faf|fec faf|
gfg e2 g|fed faf|gbg fed|BAB d2 e2|fee e2 f:|

